X:203
T:Theodore. VWMLa.203
%%VWML:Anon2-3049-p126-0
F:http://www.vwml.org/record/Anon2/3049/p126
S:Anon. MS, late 18thC, Vaughan Williams Mem. Library
O:England;Yorkshire
N:This tune notated in a different hand.
Z:vmp/efdss.Simon Wilson. Reviewed PJH 2008.
M:C
L:1/8
Q:2/4=120
K:G
d4 B2G2|c2e2{e} d4|g4 (ag)(fe)|d2c2{c} B4|\
d4 B2G2|c2e2{e} d4|g4 A2(ce)|d2F2 G4:|
|(B4 A2)D2|(B3^c/d/) A4|(B4 A2) D2|(B3^c/d/) A4|\
(^GA).A.A (^AB).B.B|(d^c).c.c (ed).c.c|\
(e3f/g/) (fd)(ge)|f2e2 d4|]
